Gruvbox-Plus-Dark/apps/16/4chan.svg

<svg width="16" height="16" version="1.1" viewBox="0 0 16 16" xmlns="http://www.w3.org/2000/svg">
  <defs>
    <style type="text/css" id="current-color-scheme">.ColorScheme-Text { color:#ebdbb2; } .ColorScheme-Highlight { color:#458588; }</style>
  </defs>
  <path class="ColorScheme-Text" fill="currentColor" d="m10.62 1c-0.72 0-1.458 0.995-1.458 2.917 0 1.75 0.583 2.916 0.583 2.916s4.667-0.583 4.667-2.916c0-1.75-1.643-3.172-2.334-1.75-0.26-0.782-0.761-1.167-1.458-1.167zm-6.708 0.583c-1.75 0-3.172 1.643-1.75 2.334-0.782 0.26-1.167 0.761-1.167 1.458 0 0.72 0.995 1.458 2.917 1.458 1.75 0 2.916-0.583 2.916-0.583s-0.583-4.667-2.916-4.667zm2.333 7.584s-4.667 0.583-4.667 2.916c0 1.75 1.643 3.172 2.334 1.75 0.26 0.782 0.761 1.167 1.458 1.167 0.72 0 1.458-0.995 1.458-2.917 0-1.75-0.583-2.916-0.583-2.916zm5.833 0c-1.75 0-2.916 0.583-2.916 0.583s0.583 4.667 2.916 4.667c1.75 0 3.172-1.643 1.75-2.334 0.782-0.26 1.167-0.761 1.167-1.458 0-0.72-0.995-1.458-2.917-1.458z"/>
</svg>

<svg xmlns="http://www.w3.org/2000/svg" style="isolation:isolate" width="16" height="16" viewBox="0 0 16 16">
 <defs>
  <style id="current-color-scheme" type="text/css">
   .ColorScheme-Text { color:#ebdbb2; } .ColorScheme-Highlight { color:#458588; }
  </style>
  <linearGradient id="arrongin" x1="0%" x2="0%" y1="0%" y2="100%">
   <stop offset="0%" style="stop-color:#d79921; stop-opacity:1"/>
   <stop offset="100%" style="stop-color:#b57614; stop-opacity:1"/>
  </linearGradient>
  <linearGradient id="aurora" x1="0%" x2="0%" y1="0%" y2="100%">
   <stop offset="0%" style="stop-color:#83a598; stop-opacity:1"/>
   <stop offset="100%" style="stop-color:#b16286; stop-opacity:1"/>
  </linearGradient>
  <linearGradient id="fitdance" x1="0%" x2="0%" y1="0%" y2="100%">
   <stop offset="0%" style="stop-color:#8ec07c; stop-opacity:1"/>
   <stop offset="100%" style="stop-color:#458588; stop-opacity:1"/>
  </linearGradient>
  <linearGradient id="oomox" x1="0%" x2="0%" y1="0%" y2="100%">
   <stop offset="0%" style="stop-color:#458588; stop-opacity:1"/>
   <stop offset="100%" style="stop-color:#928374; stop-opacity:1"/>
  </linearGradient>
  <linearGradient id="rainblue" x1="0%" x2="0%" y1="0%" y2="100%">
   <stop offset="0%" style="stop-color:#b8bb26; stop-opacity:1"/>
   <stop offset="100%" style="stop-color:#076678; stop-opacity:1"/>
  </linearGradient>
  <linearGradient id="sunrise" x1="0%" x2="0%" y1="0%" y2="100%">
   <stop offset="0%" style="stop-color: #fe8019; stop-opacity:1"/>
   <stop offset="100%" style="stop-color: #fabd2f; stop-opacity:1"/>
  </linearGradient>
  <linearGradient id="telinkrin" x1="0%" x2="0%" y1="0%" y2="100%">
   <stop offset="0%" style="stop-color: #83a598; stop-opacity:1"/>
   <stop offset="100%" style="stop-color: #83a598; stop-opacity:1"/>
  </linearGradient>
  <linearGradient id="60spsycho" x1="0%" x2="0%" y1="0%" y2="100%">
   <stop offset="0%" style="stop-color: #fb4934; stop-opacity:1"/>
   <stop offset="25%" style="stop-color: #fabd2f; stop-opacity:1"/>
   <stop offset="50%" style="stop-color: #fe8019; stop-opacity:1"/>
   <stop offset="100%" style="stop-color: #689d6a; stop-opacity:1"/>
  </linearGradient>
  <linearGradient id="90ssummer" x1="0%" x2="0%" y1="0%" y2="100%">
   <stop offset="0%" style="stop-color: #b16286; stop-opacity:1"/>
   <stop offset="20%" style="stop-color: #8ec07c; stop-opacity:1"/>
   <stop offset="50%" style="stop-color: #fabd2f; stop-opacity:1"/>
   <stop offset="100%" style="stop-color: #458588; stop-opacity:1"/>
  </linearGradient>
  <linearGradient id="cyberneon" x1="0%" x2="0%" y1="0%" y2="100%">
    <stop offset="0" style="stop-color:#83a598; stop-opacity:1"/>
    <stop offset="1" style="stop-color:#b16286; stop-opacity:1"/>
  </linearGradient>
  <clipPath id="_clipPath_L32hPx2VfMpddMY7rEaP9u3h3JzBHsua">
   <rect width="16" height="16"/>
  </clipPath>
 </defs>
 <g clip-path="url(#_clipPath_L32hPx2VfMpddMY7rEaP9u3h3JzBHsua)">
  <path style="fill:currentColor" class="ColorScheme-Text" d="M 10.625 1 C 9.905 1 9.167 1.995 9.167 3.917 C 9.167 5.667 9.75 6.833 9.75 6.833 C 9.75 6.833 14.417 6.25 14.417 3.917 C 14.417 2.167 12.774 0.745 12.083 2.167 C 11.823 1.385 11.322 1 10.625 1 Z M 3.917 1.583 C 2.167 1.583 0.745 3.226 2.167 3.917 C 1.385 4.177 1 4.678 1 5.375 C 1 6.095 1.995 6.833 3.917 6.833 C 5.667 6.833 6.833 6.25 6.833 6.25 C 6.833 6.25 6.25 1.583 3.917 1.583 Z M 6.25 9.167 C 6.25 9.167 1.583 9.75 1.583 12.083 C 1.583 13.833 3.226 15.255 3.917 13.833 C 4.177 14.615 4.678 15 5.375 15 C 6.095 15 6.833 14.005 6.833 12.083 C 6.833 10.333 6.25 9.167 6.25 9.167 Z M 12.083 9.167 C 10.333 9.167 9.167 9.75 9.167 9.75 C 9.167 9.75 9.75 14.417 12.083 14.417 C 13.833 14.417 15.255 12.774 13.833 12.083 C 14.615 11.823 15 11.322 15 10.625 C 15 9.905 14.005 9.167 12.083 9.167 Z"/>
  <rect style="fill:currentColor" class="ColorScheme-Text" width="4.625" height="3.594" x="18.19" y="-.16" transform="matrix(1,0,0,1,0,0)"/>
 </g>
</svg>
